static/img/kroki/b842bb1641c9a044231e9f8c466b4334.svg

<?xml version="1.0" encoding="us-ascii" standalone="no"?><svg xmlns="http://www.w3.org/2000/svg" xmlns:xlink="http://www.w3.org/1999/xlink" contentStyleType="text/css" height="374px" preserveAspectRatio="none" style="width:640px;height:374px;" version="1.1" viewBox="0 0 640 374" width="640px" zoomAndPan="magnify"><defs/><g><!--class azure_postgresql_server--><g id="elem_azure_postgresql_server"><rect codeLine="23" fill="#3D176E" height="39.7891" id="azure_postgresql_server" rx="2.5" ry="2.5" style="stroke:#000D19;stroke-width:0.5;" width="243" x="218" y="328.58"/><ellipse cx="233" cy="348.4745" fill="#ADD1B2" rx="11" ry="11" style="stroke:#181818;stroke-width:1.0;"/><path d="M235.9688,354.1152 Q235.3906,354.412 234.75,354.5527 Q234.1094,354.7089 233.4063,354.7089 Q230.9063,354.7089 229.5781,353.0683 Q228.2656,351.412 228.2656,348.287 Q228.2656,345.162 229.5781,343.5058 Q230.9063,341.8495 233.4063,341.8495 Q234.1094,341.8495 234.75,342.0058 Q235.4063,342.162 235.9688,342.4589 L235.9688,345.1777 Q235.3438,344.5995 234.75,344.3339 Q234.1563,344.0527 233.5313,344.0527 Q232.1875,344.0527 231.5,345.1308 Q230.8125,346.1933 230.8125,348.287 Q230.8125,350.3808 231.5,351.4589 Q232.1875,352.5214 233.5313,352.5214 Q234.1563,352.5214 234.75,352.2558 Q235.3438,351.9745 235.9688,351.3964 L235.9688,354.1152 Z " fill="#000000"/><text fill="#D9B8FF" font-family="Helvetica" font-size="17" lengthAdjust="spacing" textLength="201" x="252" y="354.3598">azure_postgresql_server</text></g><!--class azure_tracked_resource--><g id="elem_azure_tracked_resource"><rect codeLine="26" fill="#3D176E" height="39.7891" id="azure_tracked_resource" rx="2.5" ry="2.5" style="stroke:#000D19;stroke-width:0.5;" width="239" x="7" y="167.79"/><ellipse cx="22" cy="187.6845" fill="#ADD1B2" rx="11" ry="11" style="stroke:#181818;stroke-width:1.0;"/><path d="M24.9688,193.3252 Q24.3906,193.622 23.75,193.7627 Q23.1094,193.9189 22.4063,193.9189 Q19.9063,193.9189 18.5781,192.2783 Q17.2656,190.622 17.2656,187.497 Q17.2656,184.372 18.5781,182.7158 Q19.9063,181.0595 22.4063,181.0595 Q23.1094,181.0595 23.75,181.2158 Q24.4063,181.372 24.9688,181.6689 L24.9688,184.3877 Q24.3438,183.8095 23.75,183.5439 Q23.1563,183.2627 22.5313,183.2627 Q21.1875,183.2627 20.5,184.3408 Q19.8125,185.4033 19.8125,187.497 Q19.8125,189.5908 20.5,190.6689 Q21.1875,191.7314 22.5313,191.7314 Q23.1563,191.7314 23.75,191.4658 Q24.3438,191.1845 24.9688,190.6064 L24.9688,193.3252 Z " fill="#000000"/><text fill="#D9B8FF" font-family="Helvetica" font-size="17" lengthAdjust="spacing" textLength="197" x="41" y="193.5698">azure_tracked_resource</text></g><!--class database--><g id="elem_database"><rect codeLine="29" fill="#3D176E" height="39.7891" id="database" rx="2.5" ry="2.5" style="stroke:#000D19;stroke-width:0.5;" width="117" x="281" y="167.79"/><ellipse cx="296" cy="187.6845" fill="#ADD1B2" rx="11" ry="11" style="stroke:#181818;stroke-width:1.0;"/><path d="M298.9688,193.3252 Q298.3906,193.622 297.75,193.7627 Q297.1094,193.9189 296.4063,193.9189 Q293.9063,193.9189 292.5781,192.2783 Q291.2656,190.622 291.2656,187.497 Q291.2656,184.372 292.5781,182.7158 Q293.9063,181.0595 296.4063,181.0595 Q297.1094,181.0595 297.75,181.2158 Q298.4063,181.372 298.9688,181.6689 L298.9688,184.3877 Q298.3438,183.8095 297.75,183.5439 Q297.1563,183.2627 296.5313,183.2627 Q295.1875,183.2627 294.5,184.3408 Q293.8125,185.4033 293.8125,187.497 Q293.8125,189.5908 294.5,190.6689 Q295.1875,191.7314 296.5313,191.7314 Q297.1563,191.7314 297.75,191.4658 Q298.3438,191.1845 298.9688,190.6064 L298.9688,193.3252 Z " fill="#000000"/><text fill="#D9B8FF" font-family="Helvetica" font-size="17" lengthAdjust="spacing" textLength="75" x="315" y="193.5698">database</text></g><!--class microsoft_resource--><g id="elem_microsoft_resource"><rect codeLine="32" fill="#3D176E" height="39.7891" id="microsoft_resource" rx="2.5" ry="2.5" style="stroke:#000D19;stroke-width:0.5;" width="200" x="433.5" y="167.79"/><ellipse cx="448.5" cy="187.6845" fill="#ADD1B2" rx="11" ry="11" style="stroke:#181818;stroke-width:1.0;"/><path d="M451.4688,193.3252 Q450.8906,193.622 450.25,193.7627 Q449.6094,193.9189 448.9063,193.9189 Q446.4063,193.9189 445.0781,192.2783 Q443.7656,190.622 443.7656,187.497 Q443.7656,184.372 445.0781,182.7158 Q446.4063,181.0595 448.9063,181.0595 Q449.6094,181.0595 450.25,181.2158 Q450.9063,181.372 451.4688,181.6689 L451.4688,184.3877 Q450.8438,183.8095 450.25,183.5439 Q449.6563,183.2627 449.0313,183.2627 Q447.6875,183.2627 447,184.3408 Q446.3125,185.4033 446.3125,187.497 Q446.3125,189.5908 447,190.6689 Q447.6875,191.7314 449.0313,191.7314 Q449.6563,191.7314 450.25,191.4658 Q450.8438,191.1845 451.4688,190.6064 L451.4688,193.3252 Z " fill="#000000"/><text fill="#D9B8FF" font-family="Helvetica" font-size="17" lengthAdjust="spacing" textLength="158" x="467.5" y="193.5698">microsoft_resource</text></g><!--class resource--><g id="elem_resource"><rect codeLine="35" fill="#3D176E" height="39.7891" id="resource" rx="2.5" ry="2.5" style="stroke:#000D19;stroke-width:0.5;" width="113" x="379" y="7"/><ellipse cx="394" cy="26.8945" fill="#ADD1B2" rx="11" ry="11" style="stroke:#181818;stroke-width:1.0;"/><path d="M396.9688,32.5352 Q396.3906,32.832 395.75,32.9727 Q395.1094,33.1289 394.4063,33.1289 Q391.9063,33.1289 390.5781,31.4883 Q389.2656,29.832 389.2656,26.707 Q389.2656,23.582 390.5781,21.9258 Q391.9063,20.2695 394.4063,20.2695 Q395.1094,20.2695 395.75,20.4258 Q396.4063,20.582 396.9688,20.8789 L396.9688,23.5977 Q396.3438,23.0195 395.75,22.7539 Q395.1563,22.4727 394.5313,22.4727 Q393.1875,22.4727 392.5,23.5508 Q391.8125,24.6133 391.8125,26.707 Q391.8125,28.8008 392.5,29.8789 Q393.1875,30.9414 394.5313,30.9414 Q395.1563,30.9414 395.75,30.6758 Q396.3438,30.3945 396.9688,29.8164 L396.9688,32.5352 Z " fill="#000000"/><text fill="#D9B8FF" font-family="Helvetica" font-size="17" lengthAdjust="spacing" textLength="71" x="413" y="32.7798">resource</text></g><!--reverse link azure_tracked_resource to azure_postgresql_server--><g id="link_azure_tracked_resource_azure_postgresql_server"><path codeLine="38" d="M166.6212,218.5982 C207.5612,249.1182 272.72,297.69 313.72,328.25 " fill="none" id="azure_tracked_resource-backto-azure_postgresql_server" style="stroke:#FFAF37;stroke-width:2.0;"/><polygon fill="none" points="152.19,207.84,163.0352,223.4086,170.2073,213.7878,152.19,207.84" style="stroke:#FFAF37;stroke-width:2.0;"/></g><!--reverse link database to azure_postgresql_server--><g id="link_database_azure_postgresql_server"><path codeLine="39" d="M339.5,225.84 C339.5,256.36 339.5,297.69 339.5,328.25 " fill="none" id="database-backto-azure_postgresql_server" style="stroke:#FFAF37;stroke-width:2.0;"/><polygon fill="none" points="339.5,207.84,333.5,225.84,345.5,225.84,339.5,207.84" style="stroke:#FFAF37;stroke-width:2.0;"/></g><!--reverse link microsoft_resource to azure_postgresql_server--><g id="link_microsoft_resource_azure_postgresql_server"><path codeLine="40" d="M496.1706,219.2405 C458.8806,249.7605 400.32,297.69 362.98,328.25 " fill="none" id="microsoft_resource-backto-azure_postgresql_server" style="stroke:#FFAF37;stroke-width:2.0;"/><polygon fill="none" points="510.1,207.84,492.3704,214.5974,499.9708,223.8837,510.1,207.84" style="stroke:#FFAF37;stroke-width:2.0;"/></g><!--reverse link resource to database--><g id="link_resource_database"><path codeLine="41" d="M414.6079,62.4541 C396.1579,92.9741 369.6,136.9 351.12,167.46 " fill="none" id="resource-backto-database" style="stroke:#FFAF37;stroke-width:2.0;"/><polygon fill="none" points="423.92,47.05,409.4732,59.35,419.7426,65.5581,423.92,47.05" style="stroke:#FFAF37;stroke-width:2.0;"/></g><!--reverse link resource to microsoft_resource--><g id="link_resource_microsoft_resource"><path codeLine="42" d="M456.775,62.3667 C475.615,92.8867 502.77,136.9 521.64,167.46 " fill="none" id="resource-backto-microsoft_resource" style="stroke:#FFAF37;stroke-width:2.0;"/><polygon fill="none" points="447.32,47.05,451.6694,65.5184,461.8806,59.2151,447.32,47.05" style="stroke:#FFAF37;stroke-width:2.0;"/></g><!--SRC=[XPB1Ri8m44Jl-GfBd96Wg0MaNYXIrLvGLNf7ctWDLX8xNMz0qFRV6qf1ZaF2TUPvPtRbZPOeC2zuBtBCOoGNkLIR0WXoCIEokxdDB8cUKg16uz1yjePl0Wl8KRnWjaNM2OJ4nqOdgK7dn9rdFK6IhicMHfx6Cu5nbOM6FMgUWNCpPj9noUYLaTDuebH8XaDx8paSFs03ioIH_f71O227qn2v6TMvzuLOwWEAeN-qXMLir6n4_56TBO-4LxAnwDblxVW6Kcgp5lUUzdxgH0QffYyt8EtkI2l8d1_Z60ajxmkSDxR2wKIgyLNujGsEakFf11nAmbLX7Qy9tMUsSaZRgjHN5FtKaEhR92dALKNPaXBq2GaCCRYQbkk4hBEAhxweQoq9Zz_zVh-jONG9xSQkzEX-463dc51lper-0G00]--></g></svg>

<svg xmlns="http://www.w3.org/2000/svg" width="640" height="374" viewBox="0 0 640 374"><rect width="243" height="39.789" x="218" y="328.58" fill="#3D176E" rx="2.5" ry="2.5" style="stroke:#000d19;stroke-width:.5"/><circle cx="233" cy="348.474" r="11" fill="#ADD1B2" style="stroke:#181818;stroke-width:1"/><path d="M235.969 354.115q-.578.297-1.219.438-.64.156-1.344.156-2.5 0-3.828-1.64-1.312-1.657-1.312-4.782t1.312-4.781q1.328-1.656 3.828-1.656.703 0 1.344.156.656.156 1.219.453v2.719q-.625-.579-1.219-.844-.594-.281-1.219-.281-1.344 0-2.031 1.078-.687 1.062-.687 3.156t.687 3.172q.688 1.062 2.031 1.062.625 0 1.219-.265.594-.281 1.219-.86z"/><text x="252" y="354.36" fill="#D9B8FF" font-family="Helvetica" font-size="17" textLength="201">azure_postgresql_server</text><rect width="239" height="39.789" x="7" y="167.79" fill="#3D176E" rx="2.5" ry="2.5" style="stroke:#000d19;stroke-width:.5"/><circle cx="22" cy="187.685" r="11" fill="#ADD1B2" style="stroke:#181818;stroke-width:1"/><path d="M24.969 193.325q-.578.297-1.219.438-.64.156-1.344.156-2.5 0-3.828-1.64-1.312-1.657-1.312-4.782t1.312-4.781q1.328-1.656 3.828-1.656.703 0 1.344.156.656.156 1.219.453v2.719q-.625-.578-1.219-.844-.594-.281-1.219-.281-1.343 0-2.031 1.078-.687 1.062-.687 3.156t.687 3.172q.688 1.062 2.031 1.062.625 0 1.219-.265.594-.281 1.219-.86z"/><text x="41" y="193.57" fill="#D9B8FF" font-family="Helvetica" font-size="17" textLength="197">azure_tracked_resource</text><rect width="117" height="39.789" x="281" y="167.79" fill="#3D176E" rx="2.5" ry="2.5" style="stroke:#000d19;stroke-width:.5"/><circle cx="296" cy="187.685" r="11" fill="#ADD1B2" style="stroke:#181818;stroke-width:1"/><path d="M298.969 193.325q-.578.297-1.219.438-.64.156-1.344.156-2.5 0-3.828-1.64-1.312-1.657-1.312-4.782t1.312-4.781q1.328-1.656 3.828-1.656.703 0 1.344.156.656.156 1.219.453v2.719q-.625-.578-1.219-.844-.594-.281-1.219-.281-1.344 0-2.031 1.078-.687 1.062-.687 3.156t.687 3.172q.688 1.062 2.031 1.062.625 0 1.219-.265.594-.281 1.219-.86z"/><text x="315" y="193.57" fill="#D9B8FF" font-family="Helvetica" font-size="17" textLength="75">database</text><rect width="200" height="39.789" x="433.5" y="167.79" fill="#3D176E" rx="2.5" ry="2.5" style="stroke:#000d19;stroke-width:.5"/><circle cx="448.5" cy="187.685" r="11" fill="#ADD1B2" style="stroke:#181818;stroke-width:1"/><path d="M451.469 193.325q-.578.297-1.219.438-.64.156-1.344.156-2.5 0-3.828-1.64-1.312-1.657-1.312-4.782t1.312-4.781q1.328-1.656 3.828-1.656.703 0 1.344.156.656.156 1.219.453v2.719q-.625-.578-1.219-.844-.594-.281-1.219-.281-1.344 0-2.031 1.078-.687 1.062-.687 3.156t.687 3.172q.688 1.062 2.031 1.062.625 0 1.219-.265.594-.281 1.219-.86z"/><text x="467.5" y="193.57" fill="#D9B8FF" font-family="Helvetica" font-size="17" textLength="158">microsoft_resource</text><rect width="113" height="39.789" x="379" y="7" fill="#3D176E" rx="2.5" ry="2.5" style="stroke:#000d19;stroke-width:.5"/><circle cx="394" cy="26.895" r="11" fill="#ADD1B2" style="stroke:#181818;stroke-width:1"/><path d="M396.969 32.535q-.578.297-1.219.438-.64.156-1.344.156-2.5 0-3.828-1.64-1.312-1.657-1.312-4.782t1.312-4.781q1.328-1.656 3.828-1.656.703 0 1.344.156.656.156 1.219.453v2.719q-.625-.578-1.219-.844-.594-.281-1.219-.281-1.344 0-2.031 1.078-.687 1.062-.687 3.156t.687 3.172q.688 1.062 2.031 1.062.625 0 1.219-.265.594-.281 1.219-.86z"/><text x="413" y="32.78" fill="#D9B8FF" font-family="Helvetica" font-size="17" textLength="71">resource</text><g fill="none"><path d="M166.621 218.598c40.94 30.52 106.099 79.092 147.099 109.652" style="stroke:#ffaf37;stroke-width:2"/><path d="m152.19 207.84 10.845 15.569 7.172-9.621z" style="stroke:#ffaf37;stroke-width:2"/></g><path fill="none" d="M339.5 225.84v102.41m0-120.41-6 18h12zm156.67 11.4L362.98 328.25M510.1 207.84l-17.73 6.757 7.6 9.287zM414.608 62.454C396.158 92.974 369.6 136.9 351.12 167.46m72.8-120.41-14.447 12.3 10.27 6.208zm32.855 15.317c18.84 30.52 45.995 74.533 64.865 105.093M447.32 47.05l4.35 18.468 10.21-6.303z" style="stroke:#ffaf37;stroke-width:2"/></svg>
